dist/assets/icons/facebook.svg

<svg width="12" height="22" viewBox="0 0 12 22" fill="none" xmlns="http://www.w3.org/2000/svg">
<path d="M8.83169 0.571289C5.69558 0.571289 3.54784 2.30036 3.54784 5.47684V8.21442H0V11.9271H3.54784V21.449H7.78878V11.9271H11.3267L11.8581 8.21442H7.78878V5.84364C7.78878 4.76904 8.11969 4.0365 9.8251 4.0365H12V0.717411C11.6238 0.672179 10.3339 0.571289 8.83169 0.571289Z" fill="#5C5C50"/>
</svg>

<svg width="12" height="22" fill="none" xmlns="http://www.w3.org/2000/svg"><path d="M8.832.571c-3.136 0-5.284 1.73-5.284 4.906v2.737H0v3.713h3.548v9.522h4.24v-9.522h3.539l.531-3.713h-4.07v-2.37c0-1.075.332-1.808 2.037-1.808H12V.718C11.624.672 10.334.571 8.832.571Z" fill="#5C5C50"/></svg>
